X: 38822
T: Sully's
R: reel
M: 4/4
K: Amajor
|:A3B c2BA|F~E3 FECE|~A3B cefe|afec BFAF|
EA A/A/A FAEA|ce e/e/e c'ebe|affe f2af|1 ecBc AFEF:|2 ecBc ABcd||
|:e3c f2ec|BdcB A~F3|ce e/e/e fece|~f3a afed|
ce e/e/e feaf|eAcA BAFA|a3e f2af|1 ecBc ABcd:|2 ecBc AFEF||

